assets/infra/jupyter.svg

<svg xmlns="http://www.w3.org/2000/svg" xmlns:xlink="https://www.w3.org/1999/xlink" width="44" height="44" version="2.0" viewBox="0 0 44 51"><title>Group.svg</title><desc>Created using Figma 0.90</desc><g id="Canvas" transform="translate(-1640 -2453)"><g id="Group" style="mix-blend-mode:normal"><g id="Group" style="mix-blend-mode:normal"><g id="Group" style="mix-blend-mode:normal"><g id="g" style="mix-blend-mode:normal"><g id="path" style="mix-blend-mode:normal"><g id="path9 fill" style="mix-blend-mode:normal"><use fill="#4E4E4E" transform="translate(1640.54 2474.36)" xlink:href="#path0_fill" style="mix-blend-mode:normal"/></g></g><g id="path" style="mix-blend-mode:normal"><g id="path10 fill" style="mix-blend-mode:normal"><use fill="#4E4E4E" transform="translate(1645.68 2474.37)" xlink:href="#path1_fill" style="mix-blend-mode:normal"/></g></g><g id="path" style="mix-blend-mode:normal"><g id="path11 fill" style="mix-blend-mode:normal"><use fill="#4E4E4E" transform="translate(1653.39 2474.26)" xlink:href="#path2_fill" style="mix-blend-mode:normal"/></g></g><g id="path" style="mix-blend-mode:normal"><g id="path12 fill" style="mix-blend-mode:normal"><use fill="#4E4E4E" transform="translate(1660.43 2474.39)" xlink:href="#path3_fill" style="mix-blend-mode:normal"/></g></g><g id="path" style="mix-blend-mode:normal"><g id="path13 fill" style="mix-blend-mode:normal"><use fill="#4E4E4E" transform="translate(1667.55 2472.54)" xlink:href="#path4_fill" style="mix-blend-mode:normal"/></g></g><g id="path" style="mix-blend-mode:normal"><g id="path14 fill" style="mix-blend-mode:normal"><use fill="#4E4E4E" transform="translate(1672.47 2474.29)" xlink:href="#path5_fill" style="mix-blend-mode:normal"/></g></g><g id="path" style="mix-blend-mode:normal"><g id="path15 fill" style="mix-blend-mode:normal"><use fill="#4E4E4E" transform="translate(1679.98 2474.24)" xlink:href="#path6_fill" style="mix-blend-mode:normal"/></g></g></g></g><g id="g" style="mix-blend-mode:normal"><g id="path" style="mix-blend-mode:normal"><g id="path16 fill" style="mix-blend-mode:normal"><use fill="#767677" transform="translate(1673.48 2453.69)" xlink:href="#path7_fill" style="mix-blend-mode:normal"/></g></g><g id="path" style="mix-blend-mode:normal"><g id="path17 fill" style="mix-blend-mode:normal"><use fill="#F37726" transform="translate(1643.21 2484.27)" xlink:href="#path8_fill" style="mix-blend-mode:normal"/></g></g><g id="path" style="mix-blend-mode:normal"><g id="path18 fill" style="mix-blend-mode:normal"><use fill="#F37726" transform="translate(1643.21 2457.88)" xlink:href="#path9_fill" style="mix-blend-mode:normal"/></g></g><g id="path" style="mix-blend-mode:normal"><g id="path19 fill" style="mix-blend-mode:normal"><use fill="#9E9E9E" transform="translate(1643.28 2496.09)" xlink:href="#path10_fill" style="mix-blend-mode:normal"/></g></g><g id="path" style="mix-blend-mode:normal"><g id="path20 fill" style="mix-blend-mode:normal"><use fill="#616262" transform="translate(1641.87 2458.43)" xlink:href="#path11_fill" style="mix-blend-mode:normal"/></g></g></g></g></g></g><defs><path id="path0_fill" d="M 1.74498 5.47533C 1.74498 7.03335 1.62034 7.54082 1.29983 7.91474C 0.943119 8.23595 0.480024 8.41358 0 8.41331L 0.124642 9.3036C 0.86884 9.31366 1.59095 9.05078 2.15452 8.56466C 2.45775 8.19487 2.6834 7.76781 2.818 7.30893C 2.95261 6.85005 2.99341 6.36876 2.93798 5.89377L 2.93798 0L 1.74498 0L 1.74498 5.43972L 1.74498 5.47533Z"/><path id="path1_fill" d="M 5.50204 4.76309C 5.50204 5.43081 5.50204 6.02731 5.55545 6.54368L 4.496 6.54368L 4.42478 5.48423C 4.20318 5.85909 3.88627 6.16858 3.50628 6.38125C 3.12628 6.59392 2.69675 6.70219 2.26135 6.69503C 1.22861 6.69503 0 6.13415 0 3.84608L 0 0.0445149L 1.193 0.0445149L 1.193 3.6057C 1.193 4.84322 1.57583 5.67119 2.65309 5.67119C 2.87472 5.67358 3.09459 5.63168 3.29982 5.54796C 3.50505 5.46424 3.69149 5.34039 3.84822 5.18366C 4.00494 5.02694 4.1288 4.84049 4.21252 4.63527C 4.29623 4.43004 4.33813 4.21016 4.33575 3.98853L 4.33575 0L 5.52874 0L 5.52874 4.72748L 5.50204 4.76309Z"/><path id="path2_fill" d="M 0.0534178 2.27264C 0.0534178 1.44466 0.0534178 0.768036 0 0.153731L 1.06836 0.153731L 1.12177 1.2666C 1.3598 0.864535 1.70247 0.534594 2.11325 0.311954C 2.52404 0.0893145 2.98754 -0.0176786 3.45435 0.00238095C 5.03908 0.00238095 6.23208 1.32892 6.23208 3.30538C 6.23208 5.63796 4.7987 6.79535 3.24958 6.79535C 2.85309 6.81304 2.45874 6.7281 2.10469 6.54874C 1.75064 6.36937 1.44888 6.10166 1.22861 5.77151L 1.22861 5.77151L 1.22861 9.33269L 0.0534178 9.33269L 0.0534178 2.29935L 0.0534178 2.27264ZM 1.22861 4.00872C 1.23184 4.17026 1.24972 4.33117 1.28203 4.48948C 1.38304 4.88479 1.61299 5.23513 1.93548 5.48506C 2.25798 5.735 2.65461 5.87026 3.06262 5.86944C 4.31794 5.86944 5.05689 4.8456 5.05689 3.3588C 5.05689 2.05897 4.36246 0.946096 3.10714 0.946096C 2.61036 0.986777 2.14548 1.20726 1.79965 1.5662C 1.45382 1.92514 1.25079 2.3979 1.22861 2.89585L 1.22861 4.00872Z"/><path id="path3_fill" d="M 1.31764 0.0178059L 2.75102 3.85499C 2.90237 4.28233 3.06262 4.7987 3.16946 5.18153C 3.2941 4.7898 3.42764 4.29123 3.5879 3.82828L 4.88773 0.0178059L 6.14305 0.0178059L 4.36246 4.64735C 3.47216 6.87309 2.92908 8.02158 2.11 8.71601C 1.69745 9.09283 1.19448 9.35658 0.649917 9.48166L 0.356119 8.48453C 0.736886 8.35942 1.09038 8.16304 1.39777 7.90584C 1.8321 7.55188 2.17678 7.10044 2.4038 6.5882C 2.45239 6.49949 2.48551 6.40314 2.50173 6.3033C 2.49161 6.19586 2.46457 6.0907 2.42161 5.9917L 0 0L 1.29983 0L 1.31764 0.0178059Z"/><path id="path4_fill" d="M 2.19013 0L 2.19013 1.86962L 3.8995 1.86962L 3.8995 2.75992L 2.19013 2.75992L 2.19013 6.26769C 2.19013 7.06896 2.42161 7.53191 3.08043 7.53191C 3.31442 7.53574 3.54789 7.5088 3.77486 7.45179L 3.82828 8.34208C 3.48794 8.45999 3.12881 8.51431 2.76882 8.50234C 2.53042 8.51726 2.29161 8.48043 2.06878 8.39437C 1.84595 8.30831 1.64438 8.17506 1.47789 8.00377C 1.11525 7.51873 0.949826 6.91431 1.01494 6.31221L 1.01494 2.75102L 0 2.75102L 0 1.86072L 1.03274 1.86072L 1.03274 0.275992L 2.19013 0Z"/><path id="path5_fill" d="M 1.17716 3.57899C 1.153 3.88093 1.19468 4.18451 1.29933 4.46876C 1.40398 4.75301 1.5691 5.01114 1.78329 5.22532C 1.99747 5.43951 2.2556 5.60463 2.53985 5.70928C 2.8241 5.81393 3.12768 5.85561 3.42962 5.83145C 4.04033 5.84511 4.64706 5.72983 5.21021 5.49313L 5.41498 6.38343C 4.72393 6.66809 3.98085 6.80458 3.23375 6.78406C 2.79821 6.81388 2.36138 6.74914 1.95322 6.59427C 1.54505 6.43941 1.17522 6.19809 0.869071 5.88688C 0.562928 5.57566 0.327723 5.2019 0.179591 4.79125C 0.0314584 4.38059 -0.0260962 3.94276 0.0108748 3.50777C 0.0108748 1.54912 1.17716 0 3.0824 0C 5.21911 0 5.75329 1.86962 5.75329 3.06262C 5.76471 3.24644 5.76471 3.43079 5.75329 3.61461L 1.15046 3.61461L 1.17716 3.57899ZM 4.66713 2.6887C 4.70149 2.45067 4.68443 2.20805 4.61709 1.97718C 4.54976 1.74631 4.43372 1.53255 4.2768 1.35031C 4.11987 1.16808 3.92571 1.0216 3.70739 0.920744C 3.48907 0.81989 3.25166 0.767006 3.01118 0.765656C 2.52201 0.801064 2.06371 1.01788 1.72609 1.37362C 1.38847 1.72935 1.19588 2.19835 1.18607 2.6887L 4.66713 2.6887Z"/><path id="path6_fill" d="M 0.0534178 2.19228C 0.0534178 1.42663 0.0534178 0.767806 0 0.162404L 1.06836 0.162404L 1.06836 1.43553L 1.12177 1.43553C 1.23391 1.04259 1.4656 0.694314 1.78468 0.439049C 2.10376 0.183783 2.4944 0.034196 2.90237 0.0110538C 3.01466 -0.00368459 3.12839 -0.00368459 3.24068 0.0110538L 3.24068 1.12393C 3.10462 1.10817 2.9672 1.10817 2.83114 1.12393C 2.427 1.13958 2.04237 1.30182 1.7491 1.58035C 1.45583 1.85887 1.27398 2.23462 1.23751 2.63743C 1.20422 2.8196 1.18635 3.00425 1.1841 3.18941L 1.1841 6.65267L 0.00890297 6.65267L 0.00890297 2.20118L 0.0534178 2.19228Z"/><path id="path7_fill" d="M 6.03059 2.83565C 6.06715 3.43376 5.92485 4.02921 5.6218 4.54615C 5.31875 5.0631 4.86869 5.47813 4.32893 5.73839C 3.78917 5.99864 3.18416 6.09233 2.59097 6.00753C 1.99778 5.92272 1.44326 5.66326 0.998048 5.26219C 0.552837 4.86113 0.23709 4.33661 0.0910307 3.75546C -0.0550287 3.17431 -0.0247891 2.56283 0.177897 1.99893C 0.380583 1.43503 0.746541 0.944221 1.22915 0.589037C 1.71176 0.233853 2.28918 0.0303686 2.88784 0.00450543C 3.28035 -0.0170932 3.67326 0.0391144 4.04396 0.169896C 4.41467 0.300677 4.75587 0.503453 5.04794 0.766561C 5.34 1.02967 5.57718 1.34792 5.74582 1.70301C 5.91446 2.0581 6.01124 2.44303 6.03059 2.83565L 6.03059 2.83565Z"/><path id="path8_fill" d="M 18.6962 7.12238C 10.6836 7.12238 3.64131 4.24672 0 0C 1.41284 3.82041 3.96215 7.1163 7.30479 9.44404C 10.6474 11.7718 14.623 13.0196 18.6962 13.0196C 22.7695 13.0196 26.745 11.7718 30.0877 9.44404C 33.4303 7.1163 35.9796 3.82041 37.3925 4.0486e-13C 33.7601 4.24672 26.7445 7.12238 18.6962 7.12238Z"/><path id="path9_fill" d="M 18.6962 5.89725C 26.7089 5.89725 33.7512 8.77291 37.3925 13.0196C 35.9796 9.19922 33.4303 5.90333 30.0877 3.57559C 26.745 1.24785 22.7695 4.0486e-13 18.6962 0C 14.623 4.0486e-13 10.6474 1.24785 7.30479 3.57559C 3.96215 5.90333 1.41284 9.19922 0 13.0196C 3.64131 8.76401 10.648 5.89725 18.6962 5.89725Z"/><path id="path10_fill" d="M 7.59576 3.56656C 7.64276 4.31992 7.46442 5.07022 7.08347 5.72186C 6.70251 6.3735 6.13619 6.89698 5.45666 7.22561C 4.77713 7.55424 4.01515 7.67314 3.26781 7.56716C 2.52046 7.46117 1.82158 7.13511 1.26021 6.63051C 0.698839 6.12591 0.300394 5.46561 0.115637 4.73375C -0.0691191 4.00188 -0.0318219 3.23159 0.222777 2.52099C 0.477376 1.8104 0.93775 1.19169 1.54524 0.743685C 2.15274 0.295678 2.87985 0.0386595 3.63394 0.00537589C 4.12793 -0.0210471 4.62229 0.0501173 5.08878 0.214803C 5.55526 0.37949 5.98473 0.63447 6.35264 0.965179C 6.72055 1.29589 7.01971 1.69584 7.233 2.1422C 7.4463 2.58855 7.56957 3.07256 7.59576 3.56656L 7.59576 3.56656Z"/><path id="path11_fill" d="M 2.25061 4.37943C 1.81886 4.39135 1.39322 4.27535 1.02722 4.04602C 0.661224 3.81668 0.371206 3.48424 0.193641 3.09052C 0.0160762 2.69679 -0.0411078 2.25935 0.0292804 1.83321C 0.0996686 1.40707 0.294486 1.01125 0.589233 0.695542C 0.883981 0.37983 1.2655 0.158316 1.68581 0.0588577C 2.10611 -0.0406005 2.54644 -0.0135622 2.95143 0.136572C 3.35641 0.286707 3.70796 0.553234 3.96186 0.902636C 4.21577 1.25204 4.3607 1.66872 4.37842 2.10027C 4.39529 2.6838 4.18131 3.25044 3.78293 3.67715C 3.38455 4.10387 2.83392 4.35623 2.25061 4.37943Z"/></defs></svg>

<svg xmlns="http://www.w3.org/2000/svg" xmlns:xlink="http://www.w3.org/1999/xlink" width="44" height="44" version="2.0" viewBox="0 0 44 51"><g style="mix-blend-mode:normal"><g style="mix-blend-mode:normal"><use fill="#4E4E4E" transform="translate(.54 21.36)" xlink:href="#path0_fill" style="mix-blend-mode:normal"/><use fill="#4E4E4E" transform="translate(5.68 21.37)" xlink:href="#path1_fill" style="mix-blend-mode:normal"/><use fill="#4E4E4E" transform="translate(13.39 21.26)" xlink:href="#path2_fill" style="mix-blend-mode:normal"/><use fill="#4E4E4E" transform="translate(20.43 21.39)" xlink:href="#path3_fill" style="mix-blend-mode:normal"/><use fill="#4E4E4E" transform="translate(27.55 19.54)" xlink:href="#path4_fill" style="mix-blend-mode:normal"/><use fill="#4E4E4E" transform="translate(32.47 21.29)" xlink:href="#path5_fill" style="mix-blend-mode:normal"/><use fill="#4E4E4E" transform="translate(39.98 21.24)" xlink:href="#path6_fill" style="mix-blend-mode:normal"/></g><g style="mix-blend-mode:normal"><use fill="#767677" transform="translate(33.48 .69)" xlink:href="#path7_fill" style="mix-blend-mode:normal"/><use fill="#F37726" transform="translate(3.21 31.27)" xlink:href="#path8_fill" style="mix-blend-mode:normal"/><use fill="#F37726" transform="translate(3.21 4.88)" xlink:href="#path9_fill" style="mix-blend-mode:normal"/><use fill="#9E9E9E" transform="translate(3.28 43.09)" xlink:href="#path10_fill" style="mix-blend-mode:normal"/><use fill="#616262" transform="translate(1.87 5.43)" xlink:href="#path11_fill" style="mix-blend-mode:normal"/></g></g><defs><path id="path0_fill" d="M1.745 5.475c0 1.558-.125 2.066-.445 2.44a1.94 1.94 0 01-1.3.498l.125.89a3.045 3.045 0 002.03-.738 3.561 3.561 0 00.783-2.671V0H1.745V5.475z"/><path id="path1_fill" d="M5.502 4.763c0 .668 0 1.264.053 1.78H4.496l-.071-1.059A2.466 2.466 0 012.26 6.695C1.23 6.695 0 6.135 0 3.846V.045h1.193v3.56c0 1.238.383 2.066 1.46 2.066A1.665 1.665 0 004.336 3.99V0h1.193v4.727l-.027.036z"/><path id="path2_fill" d="M.053 2.273c0-.828 0-1.505-.053-2.12h1.068l.054 1.114A2.582 2.582 0 013.454.002c1.585 0 2.778 1.327 2.778 3.303 0 2.333-1.433 3.49-2.982 3.49a2.306 2.306 0 01-2.021-1.023v3.56H.053V2.274zM1.23 4.009c.003.161.02.322.053.48a1.834 1.834 0 001.78 1.38c1.256 0 1.995-1.023 1.995-2.51 0-1.3-.695-2.413-1.95-2.413a2.048 2.048 0 00-1.878 1.95v1.113z"/><path id="path3_fill" d="M1.318.018L2.75 3.855c.151.427.312.944.418 1.327.125-.392.259-.89.419-1.354l1.3-3.81h1.255l-1.78 4.63c-.89 2.225-1.434 3.374-2.253 4.068a3.24 3.24 0 01-1.46.766l-.294-.997a3.16 3.16 0 001.042-.58 3.561 3.561 0 001.006-1.317.89.89 0 00.098-.285 1.024 1.024 0 00-.08-.311L0 0h1.3l.018.018z"/><path id="path4_fill" d="M2.19 0v1.87H3.9v.89H2.19v3.508c0 .801.232 1.264.89 1.264.234.004.468-.023.695-.08l.053.89c-.34.118-.7.172-1.06.16a1.656 1.656 0 01-1.29-.498 2.395 2.395 0 01-.463-1.692V2.751H0v-.89h1.033V.276L2.19 0z"/><path id="path5_fill" d="M1.177 3.579A2.092 2.092 0 003.43 5.831a4.345 4.345 0 001.78-.338l.205.89a5.342 5.342 0 01-2.181.401A3.027 3.027 0 01.01 3.508C.01 1.549 1.177 0 3.082 0 5.22 0 5.753 1.87 5.753 3.063c.012.183.012.368 0 .552H1.15l.027-.036zm3.49-.89A1.683 1.683 0 003.011.766a1.968 1.968 0 00-1.825 1.923h3.481z"/><path id="path6_fill" d="M.053 2.192c0-.765 0-1.424-.053-2.03h1.068v1.274h.054A1.968 1.968 0 012.902.01a1.3 1.3 0 01.339 0v1.113a1.78 1.78 0 00-.41 0 1.665 1.665 0 00-1.593 1.513 3.293 3.293 0 00-.054.552v3.464H.01V2.2l.044-.009z"/><path id="path7_fill" d="M6.03 2.836A3.018 3.018 0 112.889.005a2.982 2.982 0 013.143 2.83z"/><path id="path8_fill" d="M18.696 7.122C10.684 7.122 3.641 4.247 0 0a19.934 19.934 0 0037.392 0C33.76 4.247 26.744 7.122 18.696 7.122z"/><path id="path9_fill" d="M18.696 5.897c8.013 0 15.055 2.876 18.696 7.123A19.934 19.934 0 000 13.02c3.641-4.256 10.648-7.123 18.696-7.123z"/><path id="path10_fill" d="M7.596 3.567A3.802 3.802 0 113.634.005a3.766 3.766 0 013.962 3.562z"/><path id="path11_fill" d="M2.25 4.38A2.19 2.19 0 114.379 2.1a2.217 2.217 0 01-2.127 2.28z"/></defs></svg>
